X:50
T:March in the Deferter ThFife.50
B:Thompson, C. & Thompson, S., 'The Compleat Tutor for the Fife', London, c.1765-1780.
S:Digitised by National Library of Scotland at: https://archive.org/details/nlsmusic
Z:vmp Roger Hare, 2019.
M:2/4
L:1/8
Q:1/4=100
K:D
A | d>efe | dA{c/}BA | d>efe | d2 ef | {a/}gf/e/ {g/}fe/d/ |
{d}cB/A/ ef | {a/}gf/e/ {g/}fe/d/ | (d2 e)A | d>efe | dA{c/}BA |
d>efe | d2 ef | {a/}gf/e/ {g/}fe/d/ | {d}cB/A/ ef | Bg/e/ dc |
d2 Bc | dd {e/}dc/B/ | A2 Bc | dd {e/}dc/B/ | A2 {c/}B{d/}c |
{e/}d{e/}d {e/}dc/B/ | AA {c/}B{d/}c | {e/}d{e/}d {e/}dc/B/ | A2 e>d | {d/}cB/A/ dd |
{A/}GF f>e | {e/}dc/B/ AA | {B/}A^G Bd | {d}c2 Bd | {d}c2 Bd |
c/A/d/B/ c!trill!B | A2 z A | d>efe | dA{c/}BA | d>efe | d2 ef |
{a/}gf/e/ {g/}fe/d/ | {d/}cB/A/ ef | {a/}gf/e/ {g/}fe/d/ | (d2 e)A | d>efe | dA{c/}BA |
d>efe | d2 ef | {a/}gf/e/ {g/}fe/d/ | {d/}cB/A/ df | Bg/e/ dc | d2 z |]

